X:3644
T:Leslie's March
O:england
M:6/8
L:1/8
S:Solas' first album
K:D
|:~d3 ~d3|dcB ABc|dcB AGF|~G2F E2D|~e3 ~e3|fed eag|fef ~d2A|def ~e2d:|
|:fed e~A2|fed e~A2|gfe f~B2|gfe f~B2|fed e~A2|fed eag|fef ~d2A|def ~e2d
:|
|:dfa dfa|dfa afd|egb egb|egb bge|dfa dfa|dfa ~a2g|fed ~d2A|def ~e2d:|


